Sources/FrostedUI/Resources/Icons.xcassets/code12.imageset/code-12.svg

<svg width="12" height="12" viewBox="0 0 12 12" fill="none" xmlns="http://www.w3.org/2000/svg" data-fui-icon="true">
  <path
    d="M6.40149 1.67755C6.51053 1.27806 6.92286 1.04229 7.32239 1.15118C7.72185 1.26019 7.95755 1.67259 7.84875 2.07208L5.59875 10.3221C5.48979 10.7216 5.07739 10.9573 4.67786 10.8484C4.27833 10.7394 4.04253 10.3271 4.15149 9.92755L6.40149 1.67755ZM2.32922 3.36115C2.61308 3.05965 3.08719 3.0452 3.38879 3.32892C3.69031 3.61274 3.70468 4.08686 3.42102 4.38849L2.06653 5.82892C1.976 5.92513 1.97609 6.07445 2.06653 6.17072L3.42102 7.61115C3.70472 7.91275 3.69028 8.38687 3.38879 8.67072C3.08718 8.95459 2.61311 8.94008 2.32922 8.63849L0.973755 7.19904C0.339829 6.52523 0.339742 5.47436 0.973755 4.8006L2.32922 3.36115ZM8.61047 3.32892C8.91206 3.04512 9.38713 3.05966 9.67102 3.36115L11.0265 4.8006C11.6603 5.47433 11.6602 6.52529 11.0265 7.19904L9.67102 8.63849C9.38713 8.94012 8.91211 8.9546 8.61047 8.67072C8.30931 8.38678 8.29549 7.91261 8.57922 7.61115L9.93372 6.17072C10.024 6.07452 10.024 5.9251 9.93372 5.82892L8.57922 4.38849C8.29558 4.08697 8.30923 3.6128 8.61047 3.32892Z"
    fill="currentColor"
  />
</svg>

<svg xmlns="http://www.w3.org/2000/svg" width="12" height="12" fill="none" data-fui-icon="true" viewBox="0 0 12 12"><path fill="currentColor" d="M6.401 1.678a.75.75 0 0 1 1.448.394l-2.25 8.25a.75.75 0 0 1-1.448-.394zM2.33 3.36a.75.75 0 1 1 1.092 1.027l-1.354 1.44a.25.25 0 0 0 0 .343L3.42 7.61a.75.75 0 1 1-1.092 1.027L.974 7.2a1.75 1.75 0 0 1 0-2.398zM8.61 3.33a.75.75 0 0 1 1.061.032l1.356 1.44a1.75 1.75 0 0 1 0 2.398L9.67 8.639A.75.75 0 0 1 8.579 7.61l1.355-1.44a.25.25 0 0 0 0-.342l-1.355-1.44a.75.75 0 0 1 .031-1.06"/></svg>
